X:42
T:Little Fannys Love. LIT.042
M:2/4
Q:1/4=140
L:1/8
B:Wm. Litten MS, 1802
Z:Village Music Project 2017 Anne Wride
K:G
d>e d>B | dg bg | dB AB | AG AB |
d>e d>B | dg bg | dB AB | G2G2 :|
|: b>c' b>a | ge ge | dg bg | ag eg |
d>c B>g | ed cc' | bg d'b | b2 a2 |
g>a b>a | gf ec' | ab c'b | ag fd' |
ba ge | db ge | dB AB | G2G2 :|

